z_dist/img/icons/crypto/maker-MKR.svg

<svg width="64" height="64" viewBox="0 0 64 64" fill="none" xmlns="http://www.w3.org/2000/svg">
<rect y="0.000244141" width="64" height="64" rx="4" fill="url(#paint0_linear_574_708778)"/>
<path fill-rule="evenodd" clip-rule="evenodd" d="M16.2496 26.5392V41.6005H13.3334V24.1072C13.3364 23.4636 13.7012 22.8764 14.2768 22.5886C14.8524 22.3008 15.541 22.3613 16.0576 22.745L29.9094 33.1738C30.3349 33.4943 30.5856 33.9958 30.5867 34.5285V41.6005H27.6715V35.1354L16.2496 26.5392ZM47.8372 26.5388V41.6002H50.7535V24.1068C50.7489 23.464 50.3835 22.8783 49.8082 22.5916C49.2329 22.3048 48.5452 22.3657 48.0292 22.749L34.1775 33.1735C33.7519 33.494 33.5012 33.9954 33.5001 34.5282V41.6002H36.4153V35.1351L47.8372 26.5388Z" fill="white"/>
<defs>
<linearGradient id="paint0_linear_574_708778" x1="32" y1="0.000244141" x2="32" y2="64.0002" gradientUnits="userSpaceOnUse">
<stop stop-color="#4FA89B"/>
<stop offset="1" stop-color="#6ACEBB"/>
</linearGradient>
</defs>
</svg>

<svg width="64" height="64" fill="none" xmlns="http://www.w3.org/2000/svg"><rect width="64" height="64" rx="4" fill="url(#paint0_linear_574_708778)"/><path fill-rule="evenodd" clip-rule="evenodd" d="M16.25 26.54V41.6h-2.917V24.107a1.707 1.707 0 012.725-1.362l13.851 10.429a1.7 1.7 0 01.678 1.355V41.6h-2.915v-6.465L16.25 26.54zm31.587-.001V41.6h2.916V24.107a1.707 1.707 0 00-2.724-1.358L34.177 33.173a1.7 1.7 0 00-.677 1.355V41.6h2.915v-6.465l11.422-8.596z" fill="#fff"/><defs><linearGradient id="paint0_linear_574_708778" x1="32" y1="0" x2="32" y2="64" gradientUnits="userSpaceOnUse"><stop stop-color="#4FA89B"/><stop offset="1" stop-color="#6ACEBB"/></linearGradient></defs></svg>
